X:1
T:Hasten, Lord, Thy Coming
T:Hasten, Lord, Thy Coming
T:Daniel Brink Towner
T:William Wallace Ketchum, 1918
T:Public Domain Courtesy of the Cyber Hymnal™
T:Public Domain Courtesy of the Cyber Hymnal™
C:Daniel Brink Towner
Z:Public Domain
Z:Courtesy of the Cyber Hymnal™
%%score ( 1 2 ) ( 3 4 )
L:1/8
Q:1/4=110
M:4/4
K:C
V:1 treble 
V:2 treble 
V:3 bass 
V:4 bass 
V:1
 [CE]>[DF] | [EG]2 [EG]2 [^DA]2 [D^F]2 | ([EG]3 [DF]) [CE]2 [CE]>[CE] | [CG]2 [B,D]2 [B,G]3 [B,F] | %4
w: 1.~We are|wait- ing, bless- èd|Je- * sus, Watch- ing,|wait- ing, still for|
w: 2.~Lamps all|trimmed and bright- ly|burn- * ing, Rea- dy|we would al- ways|
w: 3.~Oc- cu-|py- ing, till Thou|com- * est; Thus Thy|Word we would o-|
w: 4.~Now in|Heav- en, Thou dost|tar- * ry, Our high|priest with- in the|
w: 5.~Bless- èd|word that we are|trust- * ing, “Sure- ly,|I do quick- ly|
 [CE]6 [CE]>[DF] | [EG]2 [EG]2 [^DA]2 [D^F]2 | G4 [Cc]2 [Ec]>[Ec] | [DB]2 G2 [^FB]3 [FA] | G6 || %9
w: Thee; Thou hast|told us Thou art|com- ing, We are|wait- ing pa- tient-|ly.|
w: be; For the|cry, “The Bride- groom|com- eth!” We are|wait- ing ea- ger-|ly.|
w: bey; Then, O|Lord, Thou wilt re-|ward us, On that|bright and glad- some|day.|
w: veil, While we|wait for Thine ap-|pear- ing, Know- ing|well Thou wilt not|fail.|
w: come!” Hearts and|voic- es are re-|spond- ing, “Ev- en|so, Lord Je- sus,|come!”|
"^Refrain" [CE]>[DF] | [EG]6 [Ge]2 | [Ec]6 [EG]2 | ([FA]6 [Af]2) | [Ge]6 [Ge]>[Ge] | %14
w: |||||
w: Hast- en|Thou, dear|Lord, Thy|com- *|ing, We ho-|
w: |||||
w: |||||
w: |||||
 [Ge]2 [Gd]2 [FB]2 [FG]2 | [Ec]6 [Ec]>[GB] | [FA]2 [Gf]4 [Ge]>[Fd] | [Ec]2 [Ge]4 [Ec]>[Ge] | %18
w: ||||
w: san- nas then shall|sing, Shout- ing|“Glo- ry! Hal- le-|lu- jah! Crown Im-|
w: ||||
w: ||||
w: ||||
 [cg]2 [Ge]2 [Fd]3 [Ec] | [Ec]6 |] %20
w: ||
w: man- u- el, the|King!”|
w: ||
w: ||
w: ||
V:2
 x2 | x8 | x8 | x8 | x8 | x8 | (E3 D) x4 | x2 (DG) x4 | G6 || x2 | x8 | x8 | x8 | x8 | x8 | x8 | %16
 x8 | x8 | x8 | x6 |] %20
V:3
 [C,G,]>[C,G,] | [C,C]2 [C,G,]2 [C,^F,]2 [C,A,]2 | [C,G,]4 [C,G,]2 [C,G,]>[C,G,] | %3
w: ~ ~|~ ~ ~ ~|~ ~ ~ ~|
 [G,,E,]2 [G,,F,]2 [G,,D,]3 [G,,G,] | [C,G,]6 [C,G,]>[C,G,] | [C,C]2 [C,G,]2 [C,^F,]2 [C,A,]2 | %6
w: ~ ~ ~ ~|~ ~ ~|~ ~ ~ ~|
 G,3 F, [C,E,]2 [C,G,]>[C,G,] | [D,G,]2 [D,B,]2 [D,D]3 [D,C] | [G,,G,B,]6 || z2 | %10
w: ~ ~ ~ ~ ~|~ ~ ~ ~|~||
 [C,C]2 [C,C]2 [C,C]2 [C,C]2 | [C,G,]2 [C,G,]2 [C,G,]<[C,G,] z2 | [F,C]2 [F,C]2 [F,C]2 [F,C]2 | %13
w: Hast- en, hast- en,|Lord, Thy com- ing,|Hast- en, hast- en,|
 [C,C]2 [C,C]2 [C,C]>[C,C] [C,C]>[C,C] | [G,C]2 [F,B,]2 [D,G,]2 [B,,G,]2 | %15
w: Lord, Thy com- ing, ~ ~|~ ~ ~ ~|
 [C,G,]2 [C,G,]2 [C,G,]<[C,G,] [C,G,]>[E,C] | [F,C]2 [F,C]2 [F,C][F,C] [F,C]>[F,A,] | %17
w: ~ ~ ho- san- na! ~|~ ~ Glo- ry! * *|
 [C,G,]2 [C,C]4 [C,C]>[C,C] | [E,C]2 [C,C]2 [G,B,]3 [C,C] | [C,G,C]6 |] %20
w: |||
V:4
 x2 | x8 | x8 | x8 | x8 | x8 | C,4 x4 | x8 | x6 || x2 | x8 | x8 | x8 | x8 | x8 | x8 | x8 | x8 | %18
 x8 | x6 |] %20

